X: 29973
T: Oblique
R: jig
M: 6/8
K: Eminor
K:Fmin
FAB c2B|BAc BAF|ccA BAF|ABB BAF|
FAB c2B|BAc BAF|ccA BAF|EFF F3:|
EFF AFF|BBc BAF|EFF AFF|c2A BAF|
EFF AFF|BBc BAF|c2A BAF|EFF FFF:|

